app/resource/noteInputSupportIcons/icon-paste.svg

<?xml version="1.0" encoding="UTF-8"?>
<svg width="18px" height="22px" viewBox="0 0 18 22" version="1.1" xmlns="http://www.w3.org/2000/svg" xmlns:xlink="http://www.w3.org/1999/xlink">
    <!-- Generator: Sketch 48.2 (47327) - http://www.bohemiancoding.com/sketch -->
    <title>icon-paste</title>
    <desc>Created with Sketch.</desc>
    <defs></defs>
    <g id="Edit-Page" stroke="none" stroke-width="1" fill="none" fill-rule="evenodd" transform="translate(-318.000000, -561.000000)">
        <g id="icon-paste" transform="translate(309.000000, 554.000000)">
            <g>
                <rect id="Rectangle-3" fill="#D8D8D8" opacity="0" x="0" y="0" width="36" height="36"></rect>
                <g id="icpn-paste" transform="translate(10.000000, 8.000000)" stroke="#717171" stroke-linecap="round" stroke-linejoin="round" stroke-width="2">
                    <path d="M12,2 L14,2 C15.1045695,2 16,2.8954305 16,4 L16,18 C16,19.1045695 15.1045695,20 14,20 L2,20 C0.8954305,20 0,19.1045695 0,18 L0,4 C0,2.8954305 0.8954305,2 2,2 L4,2" id="Shape"></path>
                    <rect id="Rectangle-path" x="4" y="0" width="8" height="4" rx="1"></rect>
                </g>
            </g>
        </g>
    </g>
</svg>

<?xml version="1.0" encoding="UTF-8"?><svg version="1.1" viewBox="0 0 18 22" xmlns="http://www.w3.org/2000/svg"><title>icon-paste</title><desc>Created with Sketch.</desc><g transform="translate(-318 -561)" fill="none" fill-rule="evenodd"><g transform="translate(309 554)"><rect width="36" height="36" fill="#D8D8D8" opacity="0"/><g transform="translate(10 8)" stroke="#717171" stroke-linecap="round" stroke-linejoin="round" stroke-width="2"><path d="m12 2h2c1.1046 0 2 0.89543 2 2v14c0 1.1046-0.89543 2-2 2h-12c-1.1046 0-2-0.89543-2-2v-14c0-1.1046 0.89543-2 2-2h2"/><rect x="4" width="8" height="4" rx="1"/></g></g></g></svg>
